!!!!SEGMENT: pl-wtm--r-1423--001_stefani-jozef--les-amours-du-village-no-1.krn
!!!cenid: 18xx:2431
!!!COM: Stefani, Józef
!!!COM-rismID: pe30024097
!!!CDT: 1800/04/16-1876/03/19
!!!CNT: Polish
!!!GTL: Les Amours du Village
!!!OTL: No. 1
!!!PDT:
!!!AGN: Secular
!!!SMS-siglum: PL-Wtm
!!!SMS-shelfmark: R 1423
!!!SMS-shelfwork: 001 G
!!!SMS-variant:
!!!SMS-altvar:
!!!NIFC-rismSourceID: 1001116122
!!!NIFC-rismChildID: 1001116122
!!!NIFC-islandoraID: pl-wtm:25544
!!!URL-pdf-islandora: https://repozytorium.nifc.pl/islandora/object/pl-wtm%3A25544/datastream/PDF/view
!!!URL-scan: https://polish.musicsources.pl/pl/lokalizacje/galeria/rekopisy/6245 @EN{Scan on Polish Music Sources Website} @PL{Skany w portalu Dziedzictwo Muzyki Polskiej w otwartym dostępie}
!!!ONB-nifc: UWAGA: części: 1. No. 1 (Allegretto), 2. No. 2 (Moderato), 3. No. 3 (Allegretto), 4. No. 4 (Allegro moderato). Od numeru 2 pomiędzy pięcioliniami zapisane wskazówki inscenizacyjne
!!!OMD: Allegretto
!!!AIN: 1 empty 1 forte
!!!key:
**kern	**kern	**dynam
*part2	*part1	*part1
*staff2	*staff1	*
*Iempty	*Iforte	*
*	*I"fortepian	*
*clefG2	*clefG2	*
*>[A,B,C,C,D,D1,B,C,C,D,E]	*>[A,B,C,C,D,D1,B,C,C,D,E]	*
*k[f#]	*k[f#]	*
*G:	*G:	*
*M6/8	*M6/8	*
=1	=1	=1
*>A	*>A	*
*all\right	*all\right	*
!	!	!LO:DY:rj
2.d/ 2.G/	2.d/ 2.B/	f
=2	=2	=2
2.d/ 2.G/	2.d/ 2.B/	.
=3	=3	=3
2.d/ 2.G/	2.d/ 2.B/	.
=4	=4	=4
2.d/ 2.G/	4.d/ 4.B/	.
.	4d/ 4B/	.
.	8d/	.
=5	=5	=5
4B/	4d/	.
8c/	8e/	.
4.B/	4d/	.
.	8g/	.
!!LO:LB:g=original
=6	=6	=6
4B/	4d/	.
8c/	8e/	.
4B/	4d/	.
8d/ 8G/	[8b/	.
=7	=7	=7
4.e/ 4.c/	8b/L]	.
.	(8dd/	.
.	8cc/J	.
4.d/ 4.c/	8a/L	.
.	8e/	.
.	8f#/J)	.
=8	=8	=8
4.d/ 4.B/	(4g/	.
.	16f#/LL	.
.	16e/JJ	.
4d/ 4B/	4d/)	.
8B/	8dd/ 8d/	.
=9	=9	=9
4B/	4dd\	.
8c/	8ee\	.
4.B/	4dd\	.
.	8gg\	.
=10	=10	=10
4B/	4dd\	.
8c/	8ee\	.
4B/	4dd\	.
!	!LO:TX:t=P:problem=brak początku ligatury	!
8d/	[8bb\	.
!!LO:LB:g=original
=11	=11	=11
4.e/ 4.c/	8bb\L]	.
.	(>8ddd\	.
.	8ccc\J	.
4.d/ 4.c/	8aa\L	.
.	8ee\	.
.	8ff#\J)	.
=12	=12	=12
*tremolo	*	*
8d/L 8B/	4.gg\	.
8d/ 8B/	.	.
8d/J 8B/	.	.
*Xtremolo	*	*
8d/ 8B/	8gg\	.
8r	8r	.
8r	8r	p
=13	=13	=13
.	(16qqaa/LL	.
.	16qqbb/JJ	.
8d/L	4ccc\)	.
8f#/	.	.
8a/J	8dd\	.
.	(16qqaa/LL	.
.	16qqbb/JJ	.
8d/	4ccc\)	.
8r	.	.
8r	8dd\	.
=14	=14	=14
.	8qaa/	.
8B/L	16gg\LL	.
.	16ff#\	.
8d/	16gg\	.
.	16aa\	.
8g/J	16bb\	.
.	16ccc\JJ	.
8b\	8ddd\	.
8r	8r	.
.	8qff#/	.
8r	8gg^<\	.
!!LO:LB:g=original
=15	=15	=15
*tremolo	*	*
!	!	!LO:DY:rj
8g/L 8A/	16gg\LL	f
.	16aa\	.
8g/ 8A/	16gg\	.
.	16ff#\	.
8g/ 8A/	16ee\	.
.	16dd\JJ	.
8g/ 8A/	16cc#X\LL	.
.	16dd\	.
8g/ 8A/	16cc#\	.
.	16b\	.
8g/J 8A/	16a\	.
.	16cc#\JJ	.
=16	=16	=16
8f#/L 8A/	16dd\LL	.
.	16ff#\	.
8f#/ 8A/	16aa\	.
.	16bb\	.
8f#/J 8A/	16aa\	.
.	16ff#\JJ	.
*Xtremolo	*	*
8f#/ 8A/	8dd\	.
(16d/LL	(16ff#\LL	.
16e/	16gg\	.
16f#/	16aa\	.
16g/JJ)	16bb\JJ)	.
=17	=17	=17
!	!	!LO:DY:rj
4a/	4ccc\	p
8d/	8dd\	.
16qqf#/LL	16qqaa/LL	.
16qqg/JJ	16qqbb/JJ	.
4a/	4ccc\	.
8d/	8dd\	.
=18	=18	=18
.	8qaa/	.
8B/L	16gg\LL	.
.	16ff#\	.
8d/	16gg\	.
.	16aa\	.
8g/J	16bb\	.
.	16ccc\JJ	.
8B/	8ddd\	.
8r	8r	.
.	8qff#/	.
8r	8gg^<\	.
!!LO:LB:g=original
=19	=19	=19
*tremolo	*	*
!	!	!LO:DY:rj
8g/L 8A/	16gg\LL	f
.	16aa\	.
8g/ 8A/	16gg\	.
.	16ff#\	.
8g/ 8A/	16ee\	.
.	16dd\JJ	.
8g/ 8A/	16cc#X\LL	.
.	16b\	.
8g/ 8A/	16a\	.
.	16b\	.
8g/J 8A/	16cc#\	.
.	16a\JJ	.
*Xtremolo	*	*
=20	=20	=20
!LO:TX:t=P:problem=ligatura lub łuk	!	!
8f#/L [8A/	4dd\	.
8A/]	.	.
!	!LO:TX:a:t=dolce	!
8f#'/J	8r	.
(8f#/L	4r	.
8A/)	.	.
8f#/J	8ff#\	.
=21!|:	=21!|:	=21!|:
*>B	*>B	*
(8g/L	(8ff#\L	.
8A/)	8ee\)	.
8g'/J	8dd'\J	.
(8g/L	(8cc#X\L	.
8A/)	8dd\)	.
8g'/J	8b'\J	.
=22	=22	=22
(8f#/L	(4a/	.
8A/)	.	.
8f#'/J	8dd\	.
*rep	*	*
(8f#/L	4ff#\)	.
8A/)	.	.
!	!LO:TX:t=P:problem=brak początku łuku	!
8f#'/J	(8aa\	.
*Xrep	*	*
!!LO:LB:g=original
=23	=23	=23
(8g/L	8ccc#X\L)	.
8A/)	8bb'\	.
8g'/J	8aa'\J	.
*rep	*	*
!	!LO:TUP:a:problem=klamra łukowa, łuczek zamiast numeru	!
(8g/L	24gg\LL	.
.	24aa\	.
.	24gg\J	.
8A/)	8ff#\	.
8g'/J	8ee'\J	.
*Xrep	*	*
=24	=24	=24
(8f#/L	4.ff#\	.
8A/)	.	.
8f#'/J	.	.
.	(16qqff#/LL	.
.	16qqee/JJ	.
(8f#/L	8dd\)	.
8A/)	8r	.
8d'/J	8ff#\	.
=25	=25	=25
(8f#/L	(8ff#\L	.
8A/)	8ee\)	.
8f#'/J	8dd'\J	.
(8g/L	8cc#X\L	.
.	(8qee/	.
8B/)	8dd\)	.
8g'/J	(8b'\J	.
=26	=26	=26
(8f#/L	4a'\)	.
8A/)	.	.
8f#'/J	8dd\	.
*rep	*	*
(8f#/L	4ff#\	.
8A/)	.	.
8f#'/J	8aa\	.
*Xrep	*	*
!!LO:PB:g=original
=27	=27	=27
.	(16qqaa/LL	.
.	16qqbb/JJ	.
(8g/L	8ccc#X\L)	.
8A/)	8bb'\	.
8g'/J	8aa'\J	.
*rep	*	*
(8g/L	8gg'\L	.
8A/)	8ff#'\	.
8g'/J	8ee'\J	.
*Xrep	*	*
=28	=28	=28
8f#/ 8A/	8dd\	.
16d/LL	16dd\LL	.
16e/	16ee\	.
16d/	16ff#\	.
16e/JJ	16gg\JJ	.
16f#/LL	16aa\LL	.
16e/	16gg\	.
16d/	16ff#\	.
16e/	16gg\	.
16f#/	16aa\	.
16g/JJ	16bb\JJ	.
=29	=29	=29
16a/LL	16ccc\LL	.
16g/	16bb\	.
16f#/	16aa\	.
16g/	16bb\	.
16a/	16ccc\	.
16b/JJ	16ddd\JJ	.
16ccn/LL	16eee\LL	.
16b/	16ddd\	.
16a/	16ccc\	.
16g/	16bb\	.
16f#/	16aa\	.
16e/JJ	16gg\JJ	.
=30	=30	=30
8d#X/L	8ff#'\L	.
8f#/ 8B/	(16bb\L	.
.	16ccc\	.
8f#/J 8B/	16bb\	.
.	16ccc\JJ)	.
4.f#/ 4.B^>/	8bb'\L	.
.	(8bb^<\	.
.	8aa\J)	.
!!LO:LB:g=original
=31	=31	=31
*tremolo	*	*
8g/L 8B/	8gg'\L	.
8g/ 8B/	(16ee\L	.
.	16ff#\	.
8g/J 8B/	16ee\	.
.	16ff#\JJ)	.
*Xtremolo	*	*
4.f#/ 4.A/	8ee'\	.
.	(8dd^\L	.
.	8cc\J)	.
=32!|:	=32!|:	=32!|:
*>C	*>C	*
!	!	!LO:DY:rj
4g/ 4B/	8b'\L	f
.	(16ff#\L	.
.	16gg\	.
8r	16ff#\	.
.	16gg\JJ)	.
4e/ 4c/	8a'\L	.
.	(16dd#X\L	.
.	16ee\	.
8r	16dd#\	.
.	16ee\JJ)	.
=33	=33	=33
4d/ 4B/	8b'\L	.
.	(16cc#X\L	.
.	16dd\	.
8r	16cc#\	.
.	16dd\JJ)	.
4f#/ 4c/	8a'\L	.
.	(16cc#\L	.
.	16dd\	.
8r	16cc#\	.
.	16dd\JJ)	.
=34:|!	=34:|!	=34:|!
*>E	*>E	*
4g/ 4B/	8b\L	.
.	16ff#\L	.
.	16gg\	.
8r	16ff#\	.
.	16gg\JJ	.
4e/ 4c/	8a\L	.
.	16dd#X\L	.
.	16ee\	.
8r	16dd#\	.
.	16ee\JJ	.
!!LO:LB:g=original
=35	=35	=35
4g/ 4B/	8b\L	.
.	(16cc#X\L	.
.	16dd\	.
8r	16cc#\	.
.	16dd\JJ)	.
4f#/ 4A/	(16a\LL	.
.	16b\)	.
.	16ccn'\	.
.	16dd'\	.
8r	16ee'\	.
.	16ff#'\JJ	.
=36	=36	=36
8g/L 8B/	8gg\L	.
16b/L	16dd\L 16g\	.
16b/J	16dd\J 16g\	.
8b/J	8dd\J 8g\	.
*tremolo	*tremolo	*
8b/L	8dd\L 8g\	.
8b/	8dd\ 8g\	.
8b/J	8dd\J 8g\	.
*Xtremolo	*Xtremolo	*
=37	=37	=37
4cc/	(4ee\ 4f#^<\	.
8b/	8dd\ 8g\)	.
4cc/	(4ee\ 4f#^<\	.
8b/	8dd\ 8g\)	.
=38	=38	=38
4cc\	(16cc\LL	.
.	16b\)	.
.	16cc'\	.
.	16dd'\	.
8r	16ee'\	.
.	16cc'\JJ	.
4a\	(16a/LL	.
.	16g#X/)	.
.	16a'/	.
.	16b'/	.
8r	16cc'/	.
.	16a'/JJ	.
!!LO:LB:g=original
=39	=39	=39
4dd\	(16f#/LL	.
.	16e/)	.
.	16d/	.
.	16e/	.
8dd\	16f#/	.
.	16g/JJ	.
4d/	(16a\LL	.
.	16b\)	.
.	16cc\	.
.	16dd\	.
8r	16ee'\	.
.	16ff#\JJ	.
=40	=40	=40
8g/L	8gg\L	.
16b/L	16dd\L 16g\	.
16b/J	16dd\J 16g\	.
8b/J	8dd\J 8g\	.
*tremolo	*tremolo	*
8b/L	8dd\L 8g\	.
8b/	8dd\ 8g\	.
8b/J	8dd\J 8g\	.
*Xtremolo	*Xtremolo	*
=41	=41	=41
(4cc/	(4ee\ 4f#^<\	.
8b/)	8dd\ 8g\)	.
*rep	*rep	*
(4cc/	(4ee\ 4f#^<\	.
8b/)	8dd\ 8g\)	.
*Xrep	*Xrep	*
=42	=42	=42
4cc\	16cc\LL	.
.	16b\	.
.	16cc\	.
.	16dd\	.
8r	16ee\	.
.	16cc\JJ	.
4a/	16a/LL	.
.	16g#X/	.
.	16a/	.
.	16b/	.
8r	16cc/	.
.	16a/JJ	.
=43	=43	=43
4dd\	16f#/LL	.
.	16e/	.
.	16d/	.
.	16e/	.
8r	16f#/	.
.	16g/JJ	.
4d/	16a\LL	.
.	16b\	.
.	16cc\	.
.	16dd\	.
8r	16ee\	.
.	16ff#\JJ	.
!!LO:LB:g=original
=44	=44	=44
4gg\ 4b\ 4d\	8gg'\L	.
.	8bb'\	.
8r	[8ddd'\J	.
4ff#\ 4a\	8ddd\L]	.
.	8aa'\	.
8r	[8ddd'\J	.
=45	=45	=45
4gg\ 4b\	8ddd\L]	.
.	8bb'\	.
8r	[8ddd'\J	.
4ff#\ 4a\	8ddd\L]	.
.	8aa'\	.
8r	8ddd'\J	.
=46	=46	=46
*rep	*	*
4gg\ 4b\	8gg'\L	.
.	8bb'\	.
8r	[8ddd'\J	.
4ff#\ 4a\	8ddd\L]	.
.	8aa'\	.
8r	[8ddd'\J	.
*Xrep	*	*
=47	=47	=47
!LO:TX:t=1ma	!	!
*>E1	*>E1	*
4gg\ 4b\ 4d\	8ddd\L]	.
.	8bb'\	.
8r	8ddd'\J	.
4.g/ 4.A^>/	8ccc#X\L	.
.	8bb\	.
.	8aa\J	.
=48	=48	=48
(8f#/L	4ddd\	.
8A/)	.	.
8f#'/J	8r	.
*rep	*	*
(8f#/L	4r	.
8A/)	.	.
8f#'/J	8ff#\	.
*Xrep	*	*
!!LO:LB:g=original
=49:|!	=49:|!	=49:|!
*>F	*>F	*
4gg\ 4b\ 4d\	8ddd\L	.
.	8bb'\	.
8r	8ddd'\J	.
4ff#\ 4a\ 4d\	8ddd'\L	.
.	8aa'\	.
8r	8ddd'\J	.
=50	=50	=50
!	!	!LO:DY:rj
8gg\ 8b\	8gg\L	ff
*tremolo	*	*
!LO:TX:a:t=Unis	!	!
*	*tremolo	*
16gg\LLyy	16gg\L	.
16gg\yy	16gg\	.
16dd\yy	16dd\	.
16dd\JJyy	16dd\JJ	.
16b\LLyy	16b\LL	.
16b\yy	16b\	.
16dd\yy	16dd\	.
16dd\yy	16dd\	.
16b\yy	16b\	.
16b\JJyy	16b\JJ	.
=51	=51	=51
16g\LLyy	16g\LL	.
16g\yy	16g\	.
16gg\yy	16gg\	.
16gg\yy	16gg\	.
16dd\yy	16dd\	.
16dd\JJyy	16dd\JJ	.
16b\LLyy	16b\LL	.
16b\yy	16b\	.
16dd\yy	16dd\	.
16dd\yy	16dd\	.
16b\yy	16b\	.
16b\JJyy	16b\JJ	.
*Xtremolo	*Xtremolo	*
=52	=52	=52
4g/yy	4g/	.
8r	8r	.
4r	4r	.
16r	16r	.
16a-X/ 16B-X/	16dd/ 16fn/	.
=53	=53	=53
4a-X/ 4B-X/	4dd/ 4fn/	.
8r	8r	.
4r	4r	.
16r	16r	.
!	!LO:TX:t=P:problem=zmiana metrum na 2/4	!
!LO:TX:t=P:problem=zmiana metrum na 2/4	!LO:TX:b:t=V&colon; S&colon;	!
16a-/ 16B-X/	16ffn\ 16b-X\	.
==	==	==
*-	*-	*-
!!!system-decoration: {(s1,s2)}
!!!RDF**kern: > = above
!!!RDF**kern: < = below
!!!EED: Andrzej Borzym
!!!EEV: 2021-06-28
!!!ENC: Andrzej Kubiczek
!!!END: 2021-06-26
!!!YEC: Copyright 2022 Narodowy Instytut Fryderyka Chopina (https://polishscores.org)
!!!YEM: License CC-BY-4.0 (https://creativecommons.org/licenses/by/4.0)
